X:1
T:Title
%%score { ( 1 3 ) | ( 2 4 ) }
L:1/8
M:4/4
K:Db
V:1 treble nm="Grand Piano"
V:3 treble 
V:2 bass 
V:4 bass 
V:1
 z4 z2[Q:1/4=100] [DF][EG] | [FA]2 [Fd]2 [_Fc]2 [FB]2 | [FA]6 [DF][DA] | [CB]2 [CA]2 [CE]2 [EG]2 | %4
 [DF]6 [DF][EG] | [FA]2 [Fd]2 [Fe]2 [Fd]2 | B6 cB | A<A A>B A2 F2 |[M:7/8] [CE]- [CE]3 D3 | %9
[M:1/4] F[EG] |[M:4/4] [FA][Fd][_FB][Fd] [=FA]2 [DF][EG] | [FA][Fd][_FB][Fd] [=FA]2 [DF][EG] | %12
 [FA]<[FA] [FB][Fc] [Fd]<[Fd] [Fc][FB] | c6 Bc | [Fe][Fd][Fd][DF] [FA]2 [FA][FA] | cBBE G2 BB | %16
 A<A Ad d<c Bc |[M:3/4] d2- [Gd-][Gd-] [Fd]2 |] %18
V:2
 z4 z2 [D,A,][D,A,] | [D,D]2 [D,A,]2 [D,=G,]2 [D,G,]2 | [D,A,]6 [D,A,][D,F,] | %3
 [A,,E,]2 [A,,E,]2 [A,,A,]2 [C,A,]2 | [D,A,]6 [D,A,][D,A,] | [D,D]2 [D,A,]2 [D,A,]2 [D,D]2 | %6
 [G,DG]6 [G,EG][G,DG] | [A,DF]<[A,DF] [A,DF]>[A,DG] [A,DF]2[K:bass] [A,D]2 | %8
[M:7/8] [A,,G,]- [A,,G,]3 [D,F,]3 |[M:1/4] [D,A,D][D,A,] | %10
[M:4/4] [D,D][D,A,][D,=G,][D,G,] [D,A,]2 [D,A,][D,A,] | %11
 [D,D][D,A,][D,=G,][D,G,] [D,A,]2 [D,A,][D,A,] | [D,D]<[D,D] [D,D][D,D] [D,A,]<[D,A,] [D,D][D,D] | %13
 [A,EG]6 [A,DG][A,EG] | [D,D][D,A,][D,A,][D,A,] [D,D]2 [D,D][D,D] | %15
 [G,B,G][G,DG][G,DG][G,B,D] [G,B,D]2[K:treble] [G,DG][G,DG] | %16
 [A,DF]<[A,DF] [A,DF][A,DF] [A,EG]<[A,EG] [A,EG][A,EG] |[M:3/4][K:bass] z2 B,B, A,2 |] %18
V:3
 x8 | x8 | x8 | x8 | x8 | x8 | x8 | x8 |[M:7/8] x7 |[M:1/4] x2 |[M:4/4] x8 | x8 | x8 | x8 | x8 | %15
 x8 | x8 |[M:3/4] [DF]2 z2 z2 |] %18
V:4
 x8 | x8 | x8 | x8 | x8 | x8 | x8 | x6[K:bass] x2 |[M:7/8] x7 |[M:1/4] x2 |[M:4/4] x8 | x8 | x8 | %13
 x8 | x8 | x6[K:treble] x2 | x8 |[M:3/4][K:bass] D,6 |] %18

